X:1
T:Title
%%score 1 { 2 | 3 }
L:1/8
Q:1/4=107
M:4/4
K:C
V:1 treble nm="Grand Piano, Soprano"
V:2 bass nm="Choir Pad, Vanuatu, 77.77 D"
V:3 bass 
V:1
 [CE]>[DF] [EG]2 C2 [Ec]2- | [Ec][EG] [GB]2 [FA]4 | z2 [FB]2- [FB][FA][FG][FG] | [FA][FB] [Ec]6 | %4
w: By~D.~T.~Browne,~1899 * * * *||||
 [CE]>[DF] [EG]2 C2 [Ec]2- | [Ec][EG] [GB]2 [FA]4 | z2 [FB]2- [FB][FA][FG][FG] | [FA][FB] [Ec]6 | %8
w: ||||
 z2 [Bd]2- [Bd][Ac] [GB]2 | [FA]2 [EG]2 [DF]2 [CE]2 | [EG]2 [Bd]2- [Bd][Ac] [GB]2 | %11
w: |||
 [FA]2 [EG]2 [DF]2 [CE]2 | [EG]2 [Ge]2- [Ge][Fd] [Ec]2 | [EG]2 [DB]2 [FA]2 [FA]2- | %14
w: |||
 [FA]2 [FB]2- [FB][FA][FG][FG] | [FA][FB] [Ec]6- | [Ec]2 z2 z4 |] %17
w: |||
V:2
 G,>G, C2 E,2 G,2- | G,C C6 | z2 G,2- G,/ z/ G, B,B, | DD C6 | G,>G, C2[K:bass] E,2 G,2- | G,C C6 | %6
 z2 G,2- G,/ z/ G, B,B, | DD C6 | z2[K:bass] G,2- G,/ z/ G, D2 | B,2 C2 C2 G,2- | %10
 G,2 G,2- G,G, G,2 | B,2[K:treble] C2 C2 C2- | C2 C2- C/ z/ B, C2 | C2 A,2 C2 C2- | %14
 C2[K:bass] G,2- G,/ z/ G, B,B, | DD C6- | C2 z2 z4 |] %17
V:3
 C,>C, C,2 C,2 C,2- | C,C, F,6 | z4 z2 G,G, | G,G, C,6 | C,>C, C,2 C,2 C,2- | C,C, F,6 | %6
 z4 z2 G,G, | G,G, C,6 | z4 z2 G,2 | G,2 C,2 C,2 C,2- | C,2 G,,2- G,,G,, G,,2 | G,,2 C,2 C,2 C,2- | %12
 C,2 z2 z G, A,2 | E,2 F,2 F,2 F,2- | F,2 z2 z2 G,G, | G,G, C,6- | C,2 z2 z4 |] %17

